X:117
T:Albertina or Skonnert Albertina
M:C|
L:1/8
Q:1/4=110
K:Eb
B,2|\
E2EF G2FE|D2 B,4 B,B,|F2FG AAGF|E2EE E2E>G|
B>BB>B G>EA>c|e>ee>e cAc>c|B2d>c B>BA>F|E2E2 EE3||
